Badges/Roblox-Styled/Creator/link-creator-store-full.svg

<svg width="159" height="32" viewBox="0 0 159 32" fill="none" xmlns="http://www.w3.org/2000/svg">
<g filter="url(#filter0_i_26_113)">
<path d="M12.6982 15.0566L14.4561 8.5L26.875 11.8311L25.6797 16.3047L17.7256 14.1689L17.1719 16.252L12.6982 15.0566ZM12.3203 16.4453L20.2744 18.5723L20.8281 16.4893L25.3018 17.6934L23.5439 24.25L11.125 20.9189L12.3203 16.4453Z" fill="white"/>
<path d="M39.96 20.11C37.969 20.11 36.374 18.834 36.374 16.15C36.374 13.686 37.815 12.19 39.96 12.19C41.313 12.19 42.248 12.74 42.842 13.51L41.775 14.577C41.357 14.027 40.73 13.642 39.96 13.642C38.706 13.642 37.892 14.478 37.892 16.15C37.892 17.822 38.706 18.658 39.96 18.658C40.554 18.658 41.005 18.471 41.379 18.108V17.272H39.828V15.908H42.875V18.746C42.215 19.538 41.357 20.11 39.96 20.11ZM46.7669 20.11C44.9959 20.11 43.8409 18.911 43.8409 17.129C43.8409 15.347 44.9959 14.126 46.6459 14.126C48.4279 14.126 49.3189 15.347 49.3189 17.052V17.547H45.2599C45.3809 18.449 45.9529 18.834 46.7669 18.834C47.3609 18.834 47.8119 18.647 48.2629 18.273L49.1099 19.285C48.4939 19.857 47.6139 20.11 46.7669 20.11ZM46.6459 15.314C45.9419 15.314 45.4799 15.677 45.3039 16.403H47.9219C47.8339 15.71 47.3719 15.314 46.6459 15.314ZM53.0513 18.812C53.3813 18.812 53.6343 18.768 53.9313 18.691V19.934C53.5903 20.044 53.2493 20.11 52.8313 20.11C51.5333 20.11 50.7743 19.373 50.7743 17.965V15.446H49.8283V14.236H50.7743V12.74H52.1823V14.236H53.8103V15.446H52.1823V17.943C52.1823 18.526 52.5343 18.812 53.0513 18.812ZM59.0068 13.4H57.5328V11.926H59.0068V13.4ZM58.9738 20H57.5658V14.236H58.9738V20ZM63.0523 18.812C63.3823 18.812 63.6353 18.768 63.9323 18.691V19.934C63.5913 20.044 63.2503 20.11 62.8323 20.11C61.5343 20.11 60.7753 19.373 60.7753 17.965V15.446H59.8293V14.236H60.7753V12.74H62.1833V14.236H63.8113V15.446H62.1833V17.943C62.1833 18.526 62.5353 18.812 63.0523 18.812ZM69.0078 13.4H67.5338V11.926H69.0078V13.4ZM68.9748 20H67.5668V14.236H68.9748V20ZM71.8322 20H70.4242V14.236H71.8322V15.05L72.0082 15.116C72.2942 14.555 72.8112 14.126 73.6692 14.126C74.9452 14.126 75.6382 14.995 75.6382 16.293V20H74.2302V16.667C74.2302 15.798 73.7902 15.424 73.0972 15.424C72.5252 15.424 72.0632 15.743 71.8322 16.194V20ZM82.9924 20.11C80.9024 20.11 79.4394 18.614 79.4394 16.15C79.4394 13.686 80.9024 12.19 82.9924 12.19C84.2134 12.19 85.2584 12.663 85.9074 13.521L84.8404 14.577C84.2794 13.917 83.7074 13.642 82.9924 13.642C81.7274 13.642 80.9574 14.522 80.9574 16.15C80.9574 17.778 81.7274 18.658 82.9924 18.658C83.7074 18.658 84.2794 18.383 84.8404 17.723L85.9074 18.779C85.2584 19.637 84.2134 20.11 82.9924 20.11ZM88.0529 20H86.6449V14.236H88.0529V15.05L88.2289 15.116C88.5479 14.489 89.0759 14.126 89.7579 14.126C89.9229 14.126 90.0989 14.148 90.2529 14.181V15.6C90.0329 15.523 89.7579 15.468 89.4059 15.468C88.8009 15.468 88.2949 15.842 88.0529 16.348V20ZM93.5169 20.11C91.7459 20.11 90.5909 18.911 90.5909 17.129C90.5909 15.347 91.7459 14.126 93.3959 14.126C95.1779 14.126 96.0689 15.347 96.0689 17.052V17.547H92.0099C92.1309 18.449 92.7029 18.834 93.5169 18.834C94.1109 18.834 94.5619 18.647 95.0129 18.273L95.8599 19.285C95.2439 19.857 94.3639 20.11 93.5169 20.11ZM93.3959 15.314C92.6919 15.314 92.2299 15.677 92.0539 16.403H94.6719C94.5839 15.71 94.1219 15.314 93.3959 15.314ZM98.6368 20.11C97.6688 20.11 96.7998 19.516 96.7998 18.295C96.7998 17.195 97.5918 16.48 99.1428 16.48H100.485V16.381C100.485 15.6 100.023 15.336 99.4178 15.336C98.7798 15.336 98.2738 15.611 97.6578 16.073L96.9868 15.028C97.6908 14.5 98.5048 14.126 99.4508 14.126C100.87 14.126 101.893 14.709 101.893 16.337V20H100.485V19.351L100.309 19.285C99.9128 19.824 99.3958 20.11 98.6368 20.11ZM99.0988 18.9C99.7148 18.9 100.199 18.559 100.485 18.152V17.492H99.1208C98.5378 17.492 98.2078 17.734 98.2078 18.196C98.2078 18.625 98.5708 18.9 99.0988 18.9ZM105.881 18.812C106.211 18.812 106.464 18.768 106.761 18.691V19.934C106.42 20.044 106.079 20.11 105.661 20.11C104.363 20.11 103.604 19.373 103.604 17.965V15.446H102.658V14.236H103.604V12.74H105.012V14.236H106.64V15.446H105.012V17.943C105.012 18.526 105.364 18.812 105.881 18.812ZM110.101 20.11C108.352 20.11 107.252 18.9 107.252 17.118C107.252 15.336 108.352 14.126 110.101 14.126C111.85 14.126 112.95 15.336 112.95 17.118C112.95 18.9 111.85 20.11 110.101 20.11ZM110.112 18.812C110.948 18.812 111.52 18.196 111.52 17.118C111.52 16.04 110.948 15.424 110.112 15.424C109.276 15.424 108.682 16.04 108.682 17.118C108.682 18.196 109.276 18.812 110.112 18.812ZM115.499 20H114.091V14.236H115.499V15.05L115.675 15.116C115.994 14.489 116.522 14.126 117.204 14.126C117.369 14.126 117.545 14.148 117.699 14.181V15.6C117.479 15.523 117.204 15.468 116.852 15.468C116.247 15.468 115.741 15.842 115.499 16.348V20ZM123.796 20.11C122.586 20.11 121.585 19.67 120.936 18.944L121.893 17.888C122.41 18.416 123.092 18.702 123.774 18.702C124.588 18.702 124.973 18.317 124.973 17.778C124.973 17.294 124.72 16.997 123.939 16.799L123.048 16.568C121.849 16.26 121.222 15.479 121.222 14.456C121.222 13.059 122.212 12.19 123.741 12.19C124.753 12.19 125.699 12.564 126.414 13.202L125.501 14.357C124.907 13.785 124.291 13.598 123.752 13.598C123.125 13.598 122.718 13.862 122.718 14.335C122.718 14.808 123.07 15.017 123.653 15.182L124.643 15.457C125.886 15.798 126.513 16.458 126.513 17.635C126.513 19.23 125.369 20.11 123.796 20.11ZM130.202 18.812C130.532 18.812 130.785 18.768 131.082 18.691V19.934C130.741 20.044 130.4 20.11 129.982 20.11C128.684 20.11 127.925 19.373 127.925 17.965V15.446H126.979V14.236H127.925V12.74H129.333V14.236H130.961V15.446H129.333V17.943C129.333 18.526 129.685 18.812 130.202 18.812ZM134.421 20.11C132.672 20.11 131.572 18.9 131.572 17.118C131.572 15.336 132.672 14.126 134.421 14.126C136.17 14.126 137.27 15.336 137.27 17.118C137.27 18.9 136.17 20.11 134.421 20.11ZM134.432 18.812C135.268 18.812 135.84 18.196 135.84 17.118C135.84 16.04 135.268 15.424 134.432 15.424C133.596 15.424 133.002 16.04 133.002 17.118C133.002 18.196 133.596 18.812 134.432 18.812ZM139.82 20H138.412V14.236H139.82V15.05L139.996 15.116C140.315 14.489 140.843 14.126 141.525 14.126C141.69 14.126 141.866 14.148 142.02 14.181V15.6C141.8 15.523 141.525 15.468 141.173 15.468C140.568 15.468 140.062 15.842 139.82 16.348V20ZM145.283 20.11C143.512 20.11 142.357 18.911 142.357 17.129C142.357 15.347 143.512 14.126 145.162 14.126C146.944 14.126 147.835 15.347 147.835 17.052V17.547H143.776C143.897 18.449 144.469 18.834 145.283 18.834C145.877 18.834 146.328 18.647 146.779 18.273L147.626 19.285C147.01 19.857 146.13 20.11 145.283 20.11ZM145.162 15.314C144.458 15.314 143.996 15.677 143.82 16.403H146.438C146.35 15.71 145.888 15.314 145.162 15.314Z" fill="white"/>
</g>
<defs>
<filter id="filter0_i_26_113" x="0" y="-2" width="159" height="34" filterUnits="userSpaceOnUse" color-interpolation-filters="sRGB">
<feFlood flood-opacity="0" result="BackgroundImageFix"/>
<feBlend mode="normal" in="SourceGraphic" in2="BackgroundImageFix" result="shape"/>
<feColorMatrix in="SourceAlpha" type="matrix" values="0 0 0 0 0 0 0 0 0 0 0 0 0 0 0 0 0 0 127 0" result="hardAlpha"/>
<feOffset dy="-2"/>
<feGaussianBlur stdDeviation="1.65"/>
<feComposite in2="hardAlpha" operator="arithmetic" k2="-1" k3="1"/>
<feColorMatrix type="matrix" values="0 0 0 0 1 0 0 0 0 1 0 0 0 0 1 0 0 0 0.11 0"/>
<feBlend mode="normal" in2="shape" result="effect1_innerShadow_26_113"/>
</filter>
</defs>
</svg>

<svg xmlns="http://www.w3.org/2000/svg" width="159" height="32" fill="none">
  <g filter="url(#a)">
    <rect width="159" height="32" fill="#000" rx="4"/>
    <path fill="#fff" d="M12.698 15.057 14.456 8.5l12.419 3.331-1.195 4.474-7.954-2.136-.554 2.083zm-.378 1.388 7.954 2.127.554-2.083 4.474 1.204-1.758 6.557-12.419-3.331zm27.64 3.665c-1.991 0-3.586-1.276-3.586-3.96 0-2.464 1.441-3.96 3.586-3.96 1.353 0 2.288.55 2.882 1.32l-1.067 1.067c-.418-.55-1.045-.935-1.815-.935-1.254 0-2.068.836-2.068 2.508s.814 2.508 2.068 2.508c.594 0 1.045-.187 1.419-.55v-.836h-1.551v-1.364h3.047v2.838c-.66.792-1.518 1.364-2.915 1.364m6.807 0c-1.771 0-2.926-1.199-2.926-2.981s1.155-3.003 2.805-3.003c1.782 0 2.673 1.221 2.673 2.926v.495h-4.06c.122.902.694 1.287 1.508 1.287.594 0 1.045-.187 1.496-.561l.847 1.012c-.616.572-1.496.825-2.343.825m-.121-4.796c-.704 0-1.166.363-1.342 1.089h2.618c-.088-.693-.55-1.089-1.276-1.089m6.405 3.498c.33 0 .583-.044.88-.121v1.243c-.34.11-.682.176-1.1.176-1.298 0-2.057-.737-2.057-2.145v-2.519h-.946v-1.21h.946V12.74h1.408v1.496h1.628v1.21h-1.628v2.497c0 .583.352.869.87.869m5.956-5.412h-1.474v-1.474h1.474zm-.033 6.6h-1.408v-5.764h1.408zm4.078-1.188c.33 0 .583-.044.88-.121v1.243c-.34.11-.682.176-1.1.176-1.298 0-2.057-.737-2.057-2.145v-2.519h-.946v-1.21h.946V12.74h1.408v1.496h1.628v1.21h-1.628v2.497c0 .583.352.869.87.869M69.01 13.4h-1.474v-1.474h1.474zm-.033 6.6h-1.408v-5.764h1.408zm2.857 0h-1.408v-5.764h1.408v.814l.176.066c.286-.561.803-.99 1.661-.99 1.276 0 1.97.869 1.97 2.167V20H74.23v-3.333c0-.869-.44-1.243-1.133-1.243-.572 0-1.034.319-1.265.77zm11.16.11c-2.09 0-3.553-1.496-3.553-3.96s1.463-3.96 3.553-3.96c1.221 0 2.266.473 2.915 1.331l-1.067 1.056c-.56-.66-1.133-.935-1.848-.935-1.265 0-2.035.88-2.035 2.508s.77 2.508 2.035 2.508c.715 0 1.287-.275 1.848-.935l1.067 1.056c-.649.858-1.694 1.331-2.915 1.331m5.06-.11h-1.407v-5.764h1.408v.814l.176.066c.319-.627.847-.99 1.529-.99.165 0 .34.022.495.055V15.6a2.5 2.5 0 0 0-.847-.132c-.605 0-1.111.374-1.353.88zm5.465.11c-1.771 0-2.926-1.199-2.926-2.981s1.155-3.003 2.805-3.003c1.782 0 2.673 1.221 2.673 2.926v.495h-4.06c.122.902.694 1.287 1.508 1.287.594 0 1.045-.187 1.496-.561l.847 1.012c-.616.572-1.496.825-2.343.825m-.121-4.796c-.704 0-1.166.363-1.342 1.089h2.618c-.088-.693-.55-1.089-1.276-1.089m5.24 4.796c-.967 0-1.836-.594-1.836-1.815 0-1.1.792-1.815 2.343-1.815h1.342v-.099c0-.781-.462-1.045-1.067-1.045-.638 0-1.144.275-1.76.737l-.671-1.045c.704-.528 1.518-.902 2.464-.902 1.419 0 2.442.583 2.442 2.211V20h-1.408v-.649l-.176-.066c-.396.539-.913.825-1.672.825m.463-1.21c.616 0 1.1-.341 1.386-.748v-.66h-1.364c-.583 0-.913.242-.913.704 0 .429.363.704.89.704m6.782-.088c.33 0 .583-.044.88-.121v1.243c-.341.11-.682.176-1.1.176-1.298 0-2.057-.737-2.057-2.145v-2.519h-.946v-1.21h.946V12.74h1.408v1.496h1.628v1.21h-1.628v2.497c0 .583.352.869.869.869m4.22 1.298c-1.749 0-2.849-1.21-2.849-2.992s1.1-2.992 2.849-2.992 2.849 1.21 2.849 2.992-1.1 2.992-2.849 2.992m.011-1.298c.836 0 1.408-.616 1.408-1.694s-.572-1.694-1.408-1.694-1.43.616-1.43 1.694.594 1.694 1.43 1.694M115.499 20h-1.408v-5.764h1.408v.814l.176.066c.319-.627.847-.99 1.529-.99.165 0 .341.022.495.055V15.6a2.5 2.5 0 0 0-.847-.132c-.605 0-1.111.374-1.353.88zm8.297.11c-1.21 0-2.211-.44-2.86-1.166l.957-1.056a2.65 2.65 0 0 0 1.881.814c.814 0 1.199-.385 1.199-.924 0-.484-.253-.781-1.034-.979l-.891-.231c-1.199-.308-1.826-1.089-1.826-2.112 0-1.397.99-2.266 2.519-2.266a4 4 0 0 1 2.673 1.012l-.913 1.155c-.594-.572-1.21-.759-1.749-.759-.627 0-1.034.264-1.034.737s.352.682.935.847l.99.275c1.243.341 1.87 1.001 1.87 2.178 0 1.595-1.144 2.475-2.717 2.475m6.406-1.298c.33 0 .583-.044.88-.121v1.243c-.341.11-.682.176-1.1.176-1.298 0-2.057-.737-2.057-2.145v-2.519h-.946v-1.21h.946V12.74h1.408v1.496h1.628v1.21h-1.628v2.497c0 .583.352.869.869.869m4.219 1.298c-1.749 0-2.849-1.21-2.849-2.992s1.1-2.992 2.849-2.992 2.849 1.21 2.849 2.992-1.1 2.992-2.849 2.992m.011-1.298c.836 0 1.408-.616 1.408-1.694s-.572-1.694-1.408-1.694-1.43.616-1.43 1.694.594 1.694 1.43 1.694M139.82 20h-1.408v-5.764h1.408v.814l.176.066c.319-.627.847-.99 1.529-.99.165 0 .341.022.495.055V15.6a2.5 2.5 0 0 0-.847-.132c-.605 0-1.111.374-1.353.88zm5.463.11c-1.771 0-2.926-1.199-2.926-2.981s1.155-3.003 2.805-3.003c1.782 0 2.673 1.221 2.673 2.926v.495h-4.059c.121.902.693 1.287 1.507 1.287.594 0 1.045-.187 1.496-.561l.847 1.012c-.616.572-1.496.825-2.343.825m-.121-4.796c-.704 0-1.166.363-1.342 1.089h2.618c-.088-.693-.55-1.089-1.276-1.089"/>
  </g>
  <defs>
    <filter id="a" width="159" height="34" x="0" y="-2" color-interpolation-filters="sRGB" filterUnits="userSpaceOnUse">
      <feFlood flood-opacity="0" result="BackgroundImageFix"/>
      <feBlend in="SourceGraphic" in2="BackgroundImageFix" result="shape"/>
      <feColorMatrix in="SourceAlpha" result="hardAlpha" values="0 0 0 0 0 0 0 0 0 0 0 0 0 0 0 0 0 0 127 0"/>
      <feOffset dy="-2"/>
      <feGaussianBlur stdDeviation="1.65"/>
      <feComposite in2="hardAlpha" k2="-1" k3="1" operator="arithmetic"/>
      <feColorMatrix values="0 0 0 0 1 0 0 0 0 1 0 0 0 0 1 0 0 0 0.11 0"/>
      <feBlend in2="shape" result="effect1_innerShadow_25_92"/>
    </filter>
  </defs>
</svg>
